!!!OTL: "Der Jaeger im Walde" DER JAEGER IN DEM WALDE
!!!ARE: Europa, Mitteleuropa, Deutschland, Nord - Deutschland
!!!SCT: Z1279
!!!YEM: Copyright 1995, estate of Helmut Schaffrath.
**kern
*ICvox
*Ivox
*M2/4
*k[]
*C:
{8G
=1
8c
8B
8A
8G
=2
8A
8G
8F}
{8E
=3
8F
8G
8A
8B
=4
4c
8d
8B
=5
4c
8r}
{8c
=6
8B
8d
8d
8B
=7
8c
8e
8e}
{8c
=8
8B
8d
8d
8B
=9
8c
8e
8e}
{8G
=10
8c
8B
8A
8G
=11
8A
8G
8F}
{8E
=12
8F
8G
8A
8B
=13
4c
8d
8B
=14
4c
8r}
==
!!!AGN: Jaeger - Lied
!!!ONB: ESAC (Essen Associative Code) Database: ZUCCAL
!!!AMT: simple duple
!!!AIN: vox
!!!EED: Helmut Schaffrath
!!!EEV: 1.0
*-
